X: 81
T: No_178_Come,_Dance.krn
N: Derived from No_178_Come,_Dance.krn
%%abc-version 2.0
%%abcx-abcm2ps-target-version 5.9.1 (29 Sep 2008)
%%abc-creator hum2abc beta
%%abcx-conversion-date 2019/03/15 08:29:13
%%humdrum-veritas 207644566
%%humdrum-veritas-data 4083241674
%%linebreak <none>
%%barnumbers 0
L: 1/8
M: 2/4
%%staves {1 2}
V: 1 clef=bass
V: 2 clef=bass
K: F
[V:1] [K:clef=bass][M:2/4]D4 | 
[V:2] [K:clef=bass][M:2/4]z2z G,, | 
[V:1] F2D2 ||  
[V:2] (3!accent!G,, z G,, (3!accent!G,, z G,, ||  
[V:1] [M:3/4]DD DA,D2 ||  
[V:2] [M:3/4]z6 ||  
[V:1] [M:2/4]B,2DA, | 
[V:2] [M:2/4]z4 | 
[V:1] A,F,F,2 | 
[V:2] z4 | 
[V:1] D/D/D/D/z2 | 
[V:2] z4 | 
[V:1] D3/B,/D2 | 
[V:2] z4 | 
[V:1] B,2DA, | 
[V:2] z4 | 
[V:1] A,F, F,E, | 
[V:2] z4 | 
[V:1] D,F,- F,E, | 
[V:2] z4 | 
[V:1] D,F,- F,E, | 
[V:2] z4 | 
[V:1] D,D,D,2 | 
[V:2] z4 | 
[V:1] D,4 |]  
[V:2] z4 |]  



